public/assets/techs/react.svg

<svg width="20" height="20" viewBox="0 0 20 20" fill="none" xmlns="http://www.w3.org/2000/svg">
<path d="M10 11.7813C10.9838 11.7813 11.7813 10.9838 11.7813 10C11.7813 9.01624 10.9838 8.21875 10 8.21875C9.01624 8.21875 8.21875 9.01624 8.21875 10C8.21875 10.9838 9.01624 11.7813 10 11.7813Z" fill="#EEEEEE"/>
<path d="M16.7656 7.0625C16.4219 6.9375 16.0625 6.8125 15.6875 6.70313C15.7812 6.32813 15.8594 5.95312 15.9219 5.59375C16.25 3.53125 15.8906 2.07812 14.8906 1.51562C14.5938 1.34375 14.2656 1.26562 13.8906 1.26562C12.7969 1.26562 11.4062 2.07812 10 3.4375C8.59375 2.07812 7.20312 1.26562 6.10937 1.26562C5.73437 1.26562 5.40625 1.34375 5.10938 1.51562C4.10938 2.09375 3.75 3.54688 4.07812 5.59375C4.14062 5.95312 4.21875 6.32813 4.3125 6.70313C3.9375 6.8125 3.57813 6.92188 3.23438 7.0625C1.28125 7.8125 0.21875 8.84375 0.21875 10C0.21875 11.1562 1.29688 12.1875 3.23438 12.9375C3.57813 13.0625 3.9375 13.1875 4.3125 13.2969C4.21875 13.6719 4.14062 14.0469 4.07812 14.4062C3.75 16.4688 4.10938 17.9219 5.10938 18.4844C5.40625 18.6562 5.73437 18.7344 6.10937 18.7344C7.21875 18.7344 8.60938 17.9219 10 16.5625C11.4062 17.9219 12.7969 18.7344 13.8906 18.7344C14.2656 18.7344 14.5938 18.6562 14.8906 18.4844C15.8906 17.9062 16.25 16.4531 15.9219 14.4062C15.8594 14.0469 15.7812 13.6719 15.6875 13.2969C16.0625 13.1875 16.4219 13.0781 16.7656 12.9375C18.7188 12.1875 19.7812 11.1562 19.7812 10C19.7812 8.84375 18.7188 7.8125 16.7656 7.0625ZM14.4531 2.29687C15.0938 2.67187 15.3125 3.82812 15.0469 5.46875C15 5.79688 14.9219 6.14062 14.8281 6.5C14.0156 6.3125 13.1562 6.1875 12.25 6.10937C11.7188 5.35937 11.1719 4.6875 10.625 4.07812C11.7812 2.9375 12.9531 2.15625 13.9062 2.15625C14.1094 2.15625 14.2969 2.20312 14.4531 2.29687ZM12.7031 11.5625C12.4219 12.0625 12.0937 12.5625 11.75 13.0625C11.1719 13.1094 10.5938 13.125 10 13.125C9.39062 13.125 8.8125 13.1094 8.25 13.0625C7.90625 12.5625 7.59375 12.0625 7.3125 11.5625C7.01562 11.0469 6.73438 10.5156 6.48438 10C6.73438 9.48438 7.01562 8.95312 7.3125 8.4375C7.59375 7.9375 7.92188 7.4375 8.26562 6.9375C8.84375 6.89063 9.42188 6.875 10.0156 6.875C10.625 6.875 11.2031 6.89063 11.7656 6.9375C12.1094 7.4375 12.4219 7.9375 12.7031 8.4375C13 8.95312 13.2812 9.48438 13.5312 10C13.2656 10.5156 13 11.0312 12.7031 11.5625ZM14 11.0469C14.2344 11.5938 14.4219 12.125 14.5938 12.6562C14.0625 12.7812 13.5 12.875 12.9062 12.9531C13.0938 12.6562 13.2969 12.3438 13.4687 12.0156C13.6562 11.6875 13.8281 11.3594 14 11.0469ZM10 15.2813C9.625 14.875 9.26562 14.4375 8.92188 13.9844C9.28125 14 9.64062 14.0156 10 14.0156C10.3594 14.0156 10.7188 14 11.0781 13.9844C10.7344 14.4375 10.375 14.875 10 15.2813ZM7.09375 12.9375C6.5 12.8594 5.9375 12.7656 5.40625 12.6406C5.57812 12.125 5.76562 11.5781 6 11.0312C6.17188 11.3438 6.34375 11.6719 6.53125 11.9844C6.71875 12.3281 6.90625 12.625 7.09375 12.9375ZM6 8.95312C5.76562 8.40625 5.57812 7.875 5.40625 7.34375C5.9375 7.21875 6.5 7.125 7.09375 7.04688C6.90625 7.34375 6.70312 7.65625 6.53125 7.98438C6.34375 8.3125 6.17188 8.64062 6 8.95312ZM10 4.71875C10.375 5.125 10.7344 5.5625 11.0781 6.01562C10.7188 6 10.3594 5.98438 10 5.98438C9.64062 5.98438 9.28125 6 8.92188 6.01562C9.26562 5.5625 9.625 5.125 10 4.71875ZM13.4687 8L12.9062 7.0625C13.5 7.14062 14.0625 7.23438 14.5938 7.35938C14.4219 7.875 14.2344 8.42188 14 8.96875C13.8281 8.64063 13.6562 8.3125 13.4687 8ZM4.95312 5.46875C4.6875 3.82812 4.90625 2.67187 5.54688 2.29687C5.70312 2.20312 5.89062 2.15625 6.09375 2.15625C7.03125 2.15625 8.20312 2.92188 9.375 4.07812C8.82812 4.67188 8.28125 5.35937 7.75 6.10937C6.84375 6.1875 5.98438 6.32812 5.17188 6.5C5.07812 6.14062 5.01562 5.79688 4.95312 5.46875ZM1.09375 10C1.09375 9.26562 1.98438 8.48438 3.54688 7.90625C3.85938 7.78125 4.20312 7.67188 4.54688 7.57812C4.79688 8.35938 5.10937 9.1875 5.48437 10.0156C5.10937 10.8438 4.78125 11.6562 4.54688 12.4375C2.39062 11.8125 1.09375 10.875 1.09375 10ZM5.54688 17.7031C4.90625 17.3281 4.6875 16.1719 4.95312 14.5312C5 14.2031 5.07812 13.8594 5.17188 13.5C5.98438 13.6875 6.84375 13.8125 7.75 13.8906C8.28125 14.6406 8.82812 15.3125 9.375 15.9219C8.21875 17.0625 7.04688 17.8438 6.09375 17.8438C5.89062 17.8438 5.70312 17.7969 5.54688 17.7031ZM15.0469 14.5312C15.3125 16.1719 15.0938 17.3281 14.4531 17.7031C14.2969 17.7969 14.1094 17.8438 13.9062 17.8438C12.9688 17.8438 11.7969 17.0781 10.625 15.9219C11.1719 15.3281 11.7188 14.6406 12.25 13.8906C13.1562 13.8125 14.0156 13.6719 14.8281 13.5C14.9219 13.8594 14.9844 14.2031 15.0469 14.5312ZM16.4531 12.0938C16.1406 12.2188 15.7969 12.3281 15.4531 12.4219C15.2031 11.6406 14.8906 10.8125 14.5156 9.98438C14.8906 9.15625 15.2188 8.34375 15.4531 7.5625C17.6094 8.1875 18.9062 9.125 18.9062 10C18.9062 10.7344 18 11.5156 16.4531 12.0938Z" fill="#EEEEEE"/>
</svg>

<svg xmlns="http://www.w3.org/2000/svg" width="20" height="20" fill="#5cceee" xmlns:v="https://vecta.io/nano"><path d="M10 11.781a1.782 1.782 0 1 0 0-3.563 1.782 1.782 0 1 0 0 3.563zm6.766-4.718l-1.078-.359.234-1.109c.328-2.062-.031-3.516-1.031-4.078a1.94 1.94 0 0 0-1-.25c-1.094 0-2.484.813-3.891 2.172C8.594 2.08 7.203 1.267 6.109 1.267a1.94 1.94 0 0 0-1 .25c-1 .578-1.359 2.031-1.031 4.078l.234 1.109-1.078.359C1.281 7.813.219 8.844.219 10s1.078 2.188 3.016 2.938l1.078.359-.234 1.109c-.328 2.063.031 3.516 1.031 4.078a1.94 1.94 0 0 0 1 .25c1.109 0 2.5-.812 3.891-2.172 1.406 1.359 2.797 2.172 3.891 2.172a1.94 1.94 0 0 0 1-.25c1-.578 1.359-2.031 1.031-4.078l-.234-1.109 1.078-.359c1.953-.75 3.016-1.781 3.016-2.937s-1.062-2.187-3.016-2.937zm-2.312-4.766c.641.375.859 1.531.594 3.172-.047.328-.125.672-.219 1.031-.812-.187-1.672-.312-2.578-.391a22.53 22.53 0 0 0-1.625-2.031c1.156-1.141 2.328-1.922 3.281-1.922.203 0 .391.047.547.141zm-1.75 9.266c-.281.5-.609 1-.953 1.5l-1.75.063c-.609 0-1.187-.016-1.75-.062l-.937-1.5L6.484 10l.828-1.562c.281-.5.609-1 .953-1.5l1.75-.062 1.75.063.938 1.5.828 1.563-.828 1.563zM14 11.047a18.44 18.44 0 0 1 .594 1.609c-.531.125-1.094.219-1.688.297l.563-.937.531-.969zm-4 4.234a17.58 17.58 0 0 1-1.078-1.297l1.078.031 1.078-.031L10 15.281zm-2.906-2.344l-1.687-.297L6 11.031l.531.953.563.953zM6 8.953a18.43 18.43 0 0 1-.594-1.609 17.17 17.17 0 0 1 1.688-.297l-.562.938L6 8.953zm4-4.234c.375.406.734.844 1.078 1.297L10 5.984l-1.078.031L10 4.719zM13.469 8l-.562-.937 1.688.297L14 8.969 13.469 8zM4.953 5.469c-.266-1.641-.047-2.797.594-3.172.156-.094.344-.141.547-.141.938 0 2.109.766 3.281 1.922A20.54 20.54 0 0 0 7.75 6.109c-.906.078-1.766.219-2.578.391l-.219-1.031zM1.094 10c0-.734.891-1.516 2.453-2.094a9.37 9.37 0 0 1 1-.328 22.77 22.77 0 0 0 .937 2.437c-.375.828-.703 1.641-.937 2.422-2.156-.625-3.453-1.562-3.453-2.437zm4.453 7.703c-.641-.375-.859-1.531-.594-3.172a9.41 9.41 0 0 1 .219-1.031 18.56 18.56 0 0 0 2.578.391 22.55 22.55 0 0 0 1.625 2.031c-1.156 1.141-2.328 1.922-3.281 1.922-.203 0-.391-.047-.547-.141zm9.5-3.172c.266 1.641.047 2.797-.594 3.172-.156.094-.344.141-.547.141-.937 0-2.109-.766-3.281-1.922a20.51 20.51 0 0 0 1.625-2.031c.906-.078 1.766-.219 2.578-.391l.219 1.031zm1.406-2.437a9.37 9.37 0 0 1-1 .328 22.77 22.77 0 0 0-.937-2.438c.375-.828.703-1.641.938-2.422 2.156.625 3.453 1.563 3.453 2.438 0 .734-.906 1.516-2.453 2.094z"/></svg>
